svg/color/reya.svg

<svg xmlns="http://www.w3.org/2000/svg" width="400" height="400" fill="none" viewBox="0 0 400 400"><path fill="#4BFF99" d="M0 0h400v400H0z"/><path fill="#001F0D" d="m145.796 234.419-21.907-42.047v-85.953L98 64h104.18c61.986 0 98.206 31.256 98.206 84.837 0 36.465-17.177 62.512-49.289 75.535L303 336h-52.277l-46.302-101.581zm-21.907-128v85.953h78.291c30.246 0 48.17-16 48.17-43.535 0-27.163-17.924-42.418-48.17-42.418z"/></svg>

<svg width="400" height="400" viewBox="0 0 400 400" fill="none" xmlns="http://www.w3.org/2000/svg">
<rect width="400" height="400" fill="#4BFF99"/>
<path d="M145.796 234.419L123.889 192.372V106.419L98 64L202.18 64C264.166 64 300.386 95.2558 300.386 148.837C300.386 185.302 283.209 211.349 251.097 224.372L303 336H250.723L204.421 234.419H145.796ZM123.889 106.419V192.372H202.18C232.426 192.372 250.35 176.372 250.35 148.837C250.35 121.674 232.426 106.419 202.18 106.419H150.09C129.748 106.419 144.232 106.419 123.889 106.419Z" fill="#001F0D"/>
</svg>
